Sources/FrostedUI/Resources/Icons.xcassets/flag16.imageset/flag-16.svg

<svg width="16" height="16" viewBox="0 0 16 16" fill="none" xmlns="http://www.w3.org/2000/svg" data-fui-icon="true">
  <path
    d="M5.92871 1.08301C6.82577 1.08313 7.68484 1.52479 8.33301 1.8457C9.06836 2.20977 9.59378 2.45298 10.0713 2.45312C10.5961 2.45307 11.149 2.33143 11.6113 2.1875C12.4959 1.91279 13.5836 2.52095 13.584 3.59082V9.64062C13.584 10.1403 13.3145 10.6327 12.833 10.8721L12.7334 10.917C12.1995 11.131 11.1511 11.4902 10.0713 11.4902C9.17444 11.4901 8.31607 11.0484 7.66797 10.7275C6.9325 10.3634 6.40629 10.1202 5.92871 10.1201C5.35422 10.1201 4.74934 10.2657 4.26758 10.4248C4.13786 10.4676 4.01945 10.5103 3.91699 10.5498V14.166C3.91699 14.5801 3.58104 14.9158 3.16699 14.916C2.75278 14.916 2.41699 14.5802 2.41699 14.166V2.93262C2.41711 2.39944 2.72355 1.87524 3.26758 1.65723L3.75684 1.47656C4.32726 1.28519 5.11918 1.08304 5.92871 1.08301ZM5.92871 2.58301C5.18606 2.58305 4.40531 2.82653 3.91699 3.01465V8.96387C4.46128 8.79249 5.18453 8.62015 5.92871 8.62012C6.82578 8.62024 7.68484 9.06191 8.33301 9.38281C9.06836 9.74687 9.59378 9.99009 10.0713 9.99023C10.8145 9.99015 11.5959 9.74579 12.084 9.55762V3.62598C12.079 3.62364 12.0736 3.62106 12.0684 3.62012C12.0619 3.61907 12.0579 3.6198 12.0566 3.62012C11.5185 3.78765 10.8053 3.95307 10.0713 3.95312C9.17443 3.95298 8.31607 3.51132 7.66797 3.19043C6.9325 2.8263 6.40629 2.58313 5.92871 2.58301Z"
    fill="currentColor"
  />
</svg>

<svg xmlns="http://www.w3.org/2000/svg" width="16" height="16" fill="none" data-fui-icon="true" viewBox="0 0 16 16"><path fill="currentColor" d="M5.929 1.083c.897 0 1.756.442 2.404.763.735.364 1.26.607 1.738.607.525 0 1.078-.122 1.54-.265.885-.275 1.973.333 1.973 1.403v6.05c0 .5-.27.992-.751 1.231l-.1.045c-.534.214-1.582.573-2.662.573-.897 0-1.755-.442-2.403-.763-.735-.364-1.262-.607-1.74-.607-.574 0-1.179.146-1.66.305q-.196.065-.351.125v3.616a.75.75 0 0 1-1.5 0V2.933c0-.534.307-1.058.85-1.276l.49-.18c.57-.192 1.362-.394 2.172-.394m0 1.5c-.743 0-1.524.244-2.012.432v5.949c.544-.172 1.268-.344 2.012-.344.897 0 1.756.442 2.404.763.735.364 1.26.607 1.738.607.744 0 1.525-.244 2.013-.432V3.626q-.007-.004-.016-.006h-.011c-.539.168-1.252.333-1.986.333-.897 0-1.755-.442-2.403-.763-.735-.364-1.262-.607-1.74-.607"/></svg>
